ap.svg

<?xml version="1.0" encoding="UTF-8" standalone="no"?>
<!-- Created with Inkscape (http://www.inkscape.org/) -->
<svg
   xmlns:dc="http://purl.org/dc/elements/1.1/"
   xmlns:cc="http://web.resource.org/cc/"
   xmlns:rdf="http://www.w3.org/1999/02/22-rdf-syntax-ns#"
   xmlns:svg="http://www.w3.org/2000/svg"
   xmlns="http://www.w3.org/2000/svg"
   xmlns:sodipodi="http://sodipodi.sourceforge.net/DTD/sodipodi-0.dtd"
   xmlns:inkscape="http://www.inkscape.org/namespaces/inkscape"
   id="svg2"
   height="700.00000"
   width="1000.0000"
   y="0.00000000"
   x="0.00000000"
   version="1.0"
   sodipodi:version="0.32"
   inkscape:version="0.44.1"
   sodipodi:docname="Bandeira_do_Amapá.svg"
   sodipodi:docbase="C:\Documents and Settings\guillermo\Mis documentos\Mis imágenes\Nueva carpeta">
  <metadata
     id="metadata1309">
    <rdf:RDF>
      <cc:Work
         rdf:about="">
        <dc:format>image/svg+xml</dc:format>
        <dc:type
           rdf:resource="http://purl.org/dc/dcmitype/StillImage" />
        <dc:creator>
          <cc:Agent>
            <dc:title>E2m</dc:title>
          </cc:Agent>
        </dc:creator>
        <dc:rights>
          <cc:Agent>
            <dc:title>E2m</dc:title>
          </cc:Agent>
        </dc:rights>
        <dc:publisher>
          <cc:Agent>
            <dc:title>Wikimedia Commons</dc:title>
          </cc:Agent>
        </dc:publisher>
        <cc:license
           rdf:resource="http://web.resource.org/cc/PublicDomain" />
      </cc:Work>
      <cc:License
         rdf:about="http://web.resource.org/cc/PublicDomain">
        <cc:permits
           rdf:resource="http://web.resource.org/cc/Reproduction" />
        <cc:permits
           rdf:resource="http://web.resource.org/cc/Distribution" />
        <cc:permits
           rdf:resource="http://web.resource.org/cc/DerivativeWorks" />
      </cc:License>
    </rdf:RDF>
  </metadata>
  <sodipodi:namedview
     id="base"
     pagecolor="#ffffff"
     bordercolor="#666666"
     borderopacity="1.0"
     inkscape:pageopacity="1.0000000"
     inkscape:pageshadow="2"
     inkscape:window-width="1024"
     inkscape:window-height="708"
     inkscape:zoom="0.51714286"
     inkscape:cx="500"
     inkscape:cy="350"
     inkscape:window-x="-4"
     inkscape:window-y="-4"
     inkscape:current-layer="svg2" />
  <defs
     id="defs3" />
  <rect
     style="opacity:1;fill:white;fill-opacity:1;stroke:none;stroke-width:2;stroke-linecap:butt;stroke-linejoin:bevel;stroke-miterlimit:4;stroke-dasharray:none;stroke-opacity:1"
     id="rect1926"
     width="1000"
     height="700"
     x="0"
     y="3.8674034e-006" />
  <g
     id="layer1">
    <path
       id="path1291"
       style="stroke-opacity:1.0000000;stroke-linejoin:miter;stroke-linecap:butt;stroke-width:1.0000000px;stroke:none;fill-rule:evenodd;fill-opacity:1;fill:#00994c"
       d="M 0.00000000,0.00000000 L 250.00000,250.00000 L 1000.0000,250.00000 L 1000.0000,450.00000 L 250.00000,450.00000 L 0.00000000,700.00000 L 0.00000000,0.00000000 z " />
    <path
       id="path2052"
       style="fill:#002580;fill-opacity:1;fill-rule:evenodd;stroke:none;stroke-width:1.0000000px;stroke-linecap:butt;stroke-linejoin:miter;stroke-opacity:1.0000000"
       d="M 1000.0000,200.00000 L 270.71068,200.00000 L 70.710678,0.00000000 L 1000.0000,0.00000000 L 1000.0000,200.00000 z " />
    <path
       id="path2812"
       style="stroke-opacity:1.0000000;stroke-linejoin:miter;stroke-linecap:butt;stroke-width:1.0000000px;stroke:none;fill-rule:evenodd;fill-opacity:1;fill:#f3e718"
       d="M 70.710678,700.00000 L 270.71068,500.00000 L 1000.0000,500.00000 L 1000.0000,700.00000 L 70.710678,700.00000 z " />
    <path
       id="path3598"
       style="fill:#000000;fill-opacity:1.0000000;fill-rule:evenodd;stroke:none;stroke-width:1.0000000px;stroke-linecap:butt;stroke-linejoin:miter;stroke-opacity:1.0000000"
       d="M 0.00000000,0.00000000 L 250.00000,250.00000 L 1000.0000,250.00000 L 1000.0000,233.00000 L 257.04163,233.00000 L 24.041631,0.00000000 L 0.00000000,0.00000000 z " />
    <path
       id="path4358"
       style="fill:#000000;fill-opacity:1.0000000;fill-rule:evenodd;stroke:none;stroke-width:1.0000000px;stroke-linecap:butt;stroke-linejoin:miter;stroke-opacity:1.0000000"
       d="M 0.00000000,700.00000 L 250.00000,450.00000 L 1000.0000,450.00000 L 1000.0000,467.00000 L 257.04163,467.00000 L 24.041631,700.00000 L 0.00000000,700.00000 z " />
    <path
       id="path4360"
       style="fill:#000000;fill-opacity:1.0000000;fill-rule:evenodd;stroke:none;stroke-width:1.0000000px;stroke-linecap:butt;stroke-linejoin:miter;stroke-opacity:1.0000000"
       d="M 46.669048,0.00000000 L 263.66905,217.00000 L 1000.0000,217.00000 L 1000.0000,200.00000 L 270.71068,200.00000 L 70.710678,0.00000000 L 46.669048,0.00000000 z " />
    <path
       id="path4362"
       style="fill:#000000;fill-opacity:1.0000000;fill-rule:evenodd;stroke:none;stroke-width:1.0000000px;stroke-linecap:butt;stroke-linejoin:miter;stroke-opacity:1.0000000"
       d="M 46.669048,700.00000 L 263.66905,483.00000 L 1000.0000,483.00000 L 1000.0000,500.00000 L 270.71068,500.00000 L 70.710678,700.00000 L 46.669048,700.00000 z " />
  </g>
  <g
     id="layer2"
     style="display:inline">
    <path
       id="path6642"
       style="fill:#ffffff;fill-opacity:1.0000000;fill-rule:evenodd;stroke:#000000;stroke-width:5.0000000;stroke-linecap:butt;stroke-linejoin:miter;stroke-miterlimit:4.0000000;stroke-opacity:1.0000000"
       d="M 152.00000,398.00000 L 146.00000,410.00000 L 164.00000,434.00000 L 182.00000,410.00000 L 176.00000,398.00000 L 212.00000,362.00000 L 224.00000,368.00000 L 248.00000,350.00000 L 224.00000,332.00000 L 212.00000,338.00000 L 176.00000,302.00000 L 182.00000,290.00000 L 164.00000,266.00000 L 146.00000,290.00000 L 152.00000,302.00000 L 116.00000,338.00000 L 104.00000,332.00000 L 80.000000,350.00000 L 104.00000,368.00000 L 116.60000,362.00000 L 152.00000,398.00000 z " />
    <path
       id="path4364"
       style="stroke-opacity:1.0000000;stroke-miterlimit:4.0000000;stroke-linejoin:miter;stroke-linecap:butt;stroke-width:5.0000000;stroke:#000000;fill-rule:evenodd;fill-opacity:1.0000000;fill:#038301"
       d="M 164.00000,386.00000 L 200.00000,350.00000 L 164.00000,314.00000 L 128.00000,350.00000 L 164.00000,386.00000 z " />
    <path
       id="path11198"
       style="fill:#000000;fill-opacity:1.0000000;fill-rule:evenodd;stroke:none;stroke-width:1.0000000px;stroke-linecap:butt;stroke-linejoin:miter;stroke-opacity:1.0000000"
       d="M 116.00000,350.00000 L 104.00000,344.00000 L 96.000000,350.00000 L 104.00000,356.00000 L 116.00000,350.00000 z " />
    <path
       id="path11959"
       style="fill:#000000;fill-opacity:1.0000000;fill-rule:evenodd;stroke:none;stroke-width:1.0000000px;stroke-linecap:butt;stroke-linejoin:miter;stroke-opacity:1.0000000"
       d="M 212.00000,350.00000 L 224.00000,344.00000 L 232.00000,350.00000 L 224.00000,356.00000 L 212.00000,350.00000 z " />
    <path
       id="path11961"
       style="fill:#000000;fill-opacity:1.0000000;fill-rule:evenodd;stroke:none;stroke-width:1.0000000px;stroke-linecap:butt;stroke-linejoin:miter;stroke-opacity:1.0000000"
       d="M 164.00000,302.00000 L 170.00000,290.00000 L 164.00000,282.00000 L 158.00000,290.00000 L 164.00000,302.00000 z " />
    <path
       id="path11963"
       style="fill:#000000;fill-opacity:1.0000000;fill-rule:evenodd;stroke:none;stroke-width:1.0000000px;stroke-linecap:butt;stroke-linejoin:miter;stroke-opacity:1.0000000"
       d="M 164.00000,398.00000 L 170.00000,410.00000 L 164.00000,418.00000 L 158.00000,410.00000 L 164.00000,398.00000 z " />
  </g>
</svg>

<svg xmlns="http://www.w3.org/2000/svg" height="700" width="1000" version="1.0"><path fill="#fff" d="M0 0h1000v700H0z"/><g fill-rule="evenodd"><path d="M0 0l250 250h750v200H250L0 700V0z" fill="#00994c"/><path d="M1000 200H270.71L70.71 0H1000v200z" fill="#002580"/><path d="M70.71 700l200-200H1000v200H70.71z" fill="#f3e718"/><path d="M0 0l250 250h750v-17H257.042l-233-233H0zM0 700l250-250h750v17H257.042l-233 233H0z"/><path d="M46.669 0l217 217H1000v-17H270.71L70.71 0H46.67zM46.669 700l217-217H1000v17H270.71l-200 200H46.67z"/></g><g fill-rule="evenodd"><path d="M152 398l-6 12 18 24 18-24-6-12 36-36 12 6 24-18-24-18-12 6-36-36 6-12-18-24-18 24 6 12-36 36-12-6-24 18 24 18 12.6-6 35.4 36z" fill="#fff" stroke="#000" stroke-width="5"/><path d="M164 386l36-36-36-36-36 36 36 36z" stroke-width="5" stroke="#000" fill="#038301"/><path d="M116 350l-12-6-8 6 8 6 12-6zM212 350l12-6 8 6-8 6-12-6zM164 302l6-12-6-8-6 8 6 12zM164 398l6 12-6 8-6-8 6-12z"/></g></svg>
